X: 4500
T: Bonny North Tyne
R: waltz
M: 3/4
K: Gmajor
|:d2|b2 g/a/g d/e/d|G2 B2 g/a/g|f/g/f e2 c2|A4 G/A/G|
F2 A2 c2|e/f/e d2 G2|B6-|B4 d2|
b/c'/b g/a/g d/e/d|G2 B2 g/a/g|f/g/f e2 c2|A4 G/A/G|
F2 d2 d2|e/f/e d2 F2|G6-|G4:|
|:Bd|G2 G2 Bd|G2 B2 d2|g/a/g f/g/f e2|A4 AB|
F2 F2- FA|[D2d2] F2 A2|e/f/e d2 c2|B4 Bd|
G2- G2 Bd|G2 B2 d2|(3gag (3fgf e2|A4 G/A/G|
F2 d2 d2|1 e/f/e d2 F2|G6-|G4:|2 e/f/e d2 f2|g6-|g4||

